X:1
T:Sérénade - A ma voix
T:Sérénade - A ma voix
T:La jolie fille de Perth
T:Georges Bizet
C:Georges Bizet
%%score 1 { ( 2 4 ) | ( 3 5 ) }
L:1/8
Q:3/8=60
M:6/8
K:C
V:1 treble-8 nm="Ténor" snm="T."
V:2 treble nm="Piano" snm="Pno."
V:4 treble 
V:3 bass 
V:5 bass 
V:1
 z6 | z6 | z6 | z6 | z6 | z6 | z6 | z6 | z6 | z6 | z6 |!p! E2 e e3- | e2 f e d c | (d2 B) d3- | %14
w: |||||||||||A la voix|_ d'un a- mant   fi-|dè- * le|
 d z e d c B | (c2 A)!<(! c3-!<)! | c/ z/!>(! B A ^G2 B!>)! | A6- | A2 z4 |!p! E2 e e3- | %20
w: _ Ah!   ré- ponds    ma|bel- * le|_ Ain- si qu'au- tre-|fois!|_|De tes yeux|
 e2 f e d c | (d2 B) d3- | d z e d c B | (c2 A)!<(! c3-!<)! | c/ z/!>(! B A ^G2 B!>)! | A6- | %26
w: _ Qu'un   ra- yon de|flam- * me|_ Pé- nè- tre   mon|â- * me|_ Et   m'ou- vre les|cieux!|
 A2 z4 |!mf! =G2 g g3- | g z z/ G/ c c z | z3/2 c/ c/ c/ (f2 f) | z f f f f3/2 f/ | (e3 e) z2 | %32
w: _|Je t'at- tends!|_ c'est   el- le|à sa fe- nê- tre|Je vais la voir pa-|raî- tre|
 z6 | z6 | z6 | A2 z4 | A2 z4 | z2 z z A A | =G3 G2 G | G3- G z2 | z6 | z2 E e3- | e d c c B A | %43
w: |||Non!|Rien!|Le si-|lence et la|nuit _||En- cor|_ un es- poir qui s'en-|
 A6- | A2 z4 | z6 | !fermata!z6 ||[M:4/4] z8 | z8 | z2 A2 z A/ A/ c z/ c/ | %50
w: fuit!|_|||||Ah! cet- te fois, c'est|
 (^d d) z c/ c/"^cresc." d2 z c/ c/ | ^d2 z2!f! d3 d | e4!>(! g3 f | (f2!>)! f) z e d c B | %54
w: elle * Elle   est   là je   la|vois Mais hé-|las! la cru-|elle * Ne   veut   pas   en-|
 A4 ^G3 A ||[K:F][Q:1/4=104]"^Allegretto moderato" e2- e z z4 | z8 | z8 | z8 |!p! f2 f2 e2 e2 | %60
w: ten- dre   ma|voix! _||||Viens ma bel- le|
{/e} (d^c) (de) d2- d z | (GA) B2 A G F-F/ z/ | G A B c (A2 A) z | f2 f2 e2 e2 | %64
w: je _ t'at- * tends! _|Ah! * viens, je t'at- tends, *|Et vers   toi d'a- van- ce,|Mon   coeur qui s'é-|
{/e} (d^cde) d2- d z | (=ce) (de) c2- c z | (FA) (GA) F2- F z |!f! c2 e3/2 c/ g2- g z | %68
w: lan- * * * ce _|Comp- te,   hé- * las, _|les * ins- * tants! _|Et jus- qu'au   jour, _|
 e d e c f2- f z | e d e c d2 G z |{/f} e d"^dim." e f e2- e z |!p!{/f} e d e f e2- e z | %72
w: Quand cha- cun som- meil,- le,|Seul   mon   a- mour   veil- le|Pour   chan- ter   l'a- mour, _|Pour   chan- ter   l'a- mour! _|
"^cresc." e8 | f2 f2 e2 e2 |{/e} (d^c) (de) d2- d z | (=ce) (de) c2- c z | (FA) (GA) F2- F z | %77
w: Ah!|Viens ma bel- le|je _ t'at- * tends! _|je _ t'at- * tends! _|je _ t'at- * tends! _|
 G c B A G2 G2 | A B c d c2 c2 | =B e"^cresc." d c B2 B2 | c d e f e2- e z/ f/ | e7/2 f/ e7/2 f/ | %82
w: De   l'a- mant   qui   pleu- re,|Qui   pleu- re  et   qui   pri- e,|Ta   co- quet- te- ri- e|Rit   en   ce   mo- ment! _ Oui,|je t'at- tends cru-|
 e6- e z |!f! (f2 a2 g2 f2) | (ed) (^ce) d2- d z | (=ce) (de) c B G A | F z!p! (fe) d2 (ed) | c8- | %88
w: el- le!|Ah! _ _ _|viens * ma * bel- le,|Viens * ma * bel- le   je   t'at-|tends!   Vers * toi   d'a- *|van-|
 c z (fe) d2 (ed) | c8- | c z c2 d4- | d z c2 e4- | e z c2 f4- | %93
w: ce, Mon    * coeur     s'é- *|lan-|ce!   Ma   bel-|le,   pa- rais!|_ ma   bel-|
[Q:1/4=80]"^allargando" f z z2!<(! c4!<)! |[Q:1/4=104]"^a tempo"!>(! a8- | a8- | a2!>)! z2 z4 | %97
w: le, Ah!|viens!|_||
 z8 |] %98
w: |
V:2
 z6 | z2 ([ce] [ce]>[Bd][Ac]) | (F2 [Bd] [Ac]>[EB]A) | (D2 [df] [ce]>[Bd][Ac]) | %4
 (F2 [Bd] [Ac]>[EB]A) | ([B=g]2 G G>AB) | (c2 e G>AB | c) z!f! (!>!^g !>!a2"_dim." !>!f | %8
 !>!e2 A ^G2 B | A6-) | A z [CE] [CE] z [CE] | [CE] z [CE] [CE] z [CE] | [CE] z [CE] [CE] z [CE] | %13
 [DE] z [DE] [DE] z [DE] | [DE] z [DE] [DE] z [DE] |!<(! [CA] z [CA] [CE] z [CE]!<)! | %16
!>(! [B,F] z [B,F] [DE] z [DE]!>)! | [CE]!pp! z!<(! (E [ce]>[Bd]!<)!!>(![Ac]) | %18
 ([Ac]>BA A2) z!>)! | z2 [CE] [CE] z [CE] | [CE] z [CE] [CE] z [CE] | [DE] z [DE] [DE] z [DE] | %22
 [DE] z [DE] [DE] z [DE] |!<(! [CA] z [CA] [CE] z [CE]!<)! |!>(! [B,F] z [B,F] [DE] z [DE]!>)! | %25
 [CE]!pp! z!<(! (E [ce]>[Bd]!<)!!>(![Ac]) | ([Ac]>BA A2) z!>)! | =G2!<(! z g3-!<)! | %28
 (g2 a"_dim." gfe | f2 G) f3- |!p! (f2 g fed |!pp! e2)!<(! ([CA] ([Ec]3-)!<)! | %32
"_dim." [Ec][DB][CA] [B,^G]2 [DB] | [CA])!pp! z z4 | z2 ([ce] [ce]>[Bd][Ac]) | %35
 (F2 [Bd] [Ac]>[EB]A) | (D2 [df] [ce]>[Bd][Ac]) | (F2 [Bd] [Ac]>[EB]A) | ([B=g]2 G G>AB) | %39
"_cresc." (c2 e g3) |!f!{/c} Tg2 T^g Ta2 Tf | Te2"_dim." TA T^G2 TB |!p! !trill(!TA6- | %43
 A z z!pp! z2 (E | [ce]>[Bd][Ac]) [Ac]3- | [Ac] z (E [Ec]>[DB][CA]) | [CA]3- [CA] z2 || %47
[M:4/4]!pp! A2- A/(c/B/A/ ^G/A/f/e/ ^d/e/b/a/ | ^g/a/c'/g/ b/a/^d/e/ =f/e/B/=d/ c/A/^F/E/) | %49
 !///-!^D2 C2 !///-!D2 C2 | !///-!^D2 C2 !///-!D2"_cresc." C2 | !///-!^D2 C2 !///-!D2 C2 | %52
!f! [CE]2- [CE] z!ff! [=d=fgb] z z2 | z4 ([CE]4 | [C^DA]2) z2 z4 ||[K:F]!p! =B^ge=b c=gec' | %56
 =B^ge=b c=gec' | =B^ge=b!<(! Bgeb!<)! | =B"_cresc."=ge=b c"_dim."_bec' |!p! cafc' cafc' | %60
 dgfd' dgfd' | cbec' cafc' | cbec' cafc' | cafc' cafc' | dgfd' dgfd' | dbec' dbec' | cc'eb cafc' | %67
!f! cgec' =Bgd=b | cgec' cafc' | caec' dgd=b | =B^g"_dim."e=b caec' |!p! =B^ge=b caec' | %72
!p! =B^g"_cresc."e=b c_bec' | cafc' cafc' | dgfd' dgfd' | cbec' cbec' | cc'eb cafc' | cbec' cbec' | %78
 cafc' cafc' | c=be"_cresc."d' dbed' | caec' d=bed' | caec' d=bed' | ^cae^c'!ff! [=ce_b=c'] z z2 | %83
!f! cafc' cafc' | dgfd' dgfd' | cbec' cbec' | c!p!afb cafc' | cbec' cbec' | cafc' cafc' | %89
 cbec' cbec' | cafc' c z z2 | cafc' c z z2 | cafc' c z z2 | cafc' c z z2 |!ppp! cafc' c z z2 | %95
 z4 cafc' | c z z2 z2 c2 | a2 f2 c'2 z2 |] %98
V:3
!pp! [A,CE] z [A,CE] [A,CE] z [A,CE] | [A,CE] z [A,CE] [A,CE] z [A,CE] | %2
 [D,A,B,] z [D,A,B,] [A,C] z [A,C] | [D,A,B,] z [D,A,B,] [A,C] z [A,C] | %4
 [D,A,B,] z [D,A,B,] [A,C] z [A,C] | ([DF]2 B, B,>CD) | (G,2 C B,>CD) | %7
 C z .[B,DE] .[A,CE] z .[D,A,B,] | .[E,A,C] z .[E,A,C] .[E,B,D] z .[E,^G,D] | %9
 .[A,C] z!pp! [A,CE]!>(! [A,CE] z [A,CE]!>)! | [A,CE] z A, A, z A, | A, z A, A, z A, | %12
 A, z A, A, z A, | [E,^G,] z [E,G,] [E,G,] z [E,G,] | [E,^G,] z [E,G,] [E,G,] z [E,G,] | %15
 [F,A,] z [F,A,] [C,A,] z [C,A,] | [D,A,] z [D,A,] [E,^G,] z [E,G,] | %17
 [A,,A,] z [A,C] [A,CE] z [A,CE] | [A,CE] z [A,CE] [A,CE] z [A,CE] | [A,CE] z A, A, z A, | %20
 A, z A, A, z A, | [E,A,] z [E,A,] [E,A,] z [E,A,] | [E,^G,] z [E,G,] [E,G,] z [E,G,] | %23
 [F,A,] z [F,A,] [C,A,] z [C,A,] | [D,A,] z [D,A,] [E,^G,] z [E,G,] | %25
 [A,,A,] z [A,C] [A,E] z [A,E] | [A,E] z [A,CE] [A,CE] z [A,CE] | [CE] z [CE] [CE] z [CE] | %28
 [E,CE] z z4 | [G,CD] z z4 | [G,B,D] z z4 | [C,C] z z ([C,E,]3 | [D,F,]3 E,3 | %33
 A,,) z [A,CE] [A,CE] z [A,CE] | [A,CE] z [A,CE] [A,CE] z [A,CE] | %35
 [D,A,B,] z [D,A,B,] [A,C] z [A,C] | [D,A,B,] z [D,A,B,] [A,C] z [A,C] | %37
 [D,A,B,] z [D,A,B,] [A,C] z [A,C] | (D2 B, B,>CD) | (G,2 C B,>CD) | %40
 [CE] z [B,DE] [A,CE] z [D,A,B,] | [E,A,C] z [E,A,C] [E,B,D] z [E,^G,D] | %42
 [A,C] z [A,CE] [A,CE] z [A,CE] | [A,CE] z [A,CE] [A,CE] z [A,C] | %44
 [A,CE] z [A,CE] [A,CE] z [A,CE] | [A,CE] z [A,C] [A,C] z z | !fermata!z6 ||[M:4/4] z8 | z8 | %49
 !///-!A,,2 ^F,2 !///-!A,,2 F,2 | !///-!A,,2 ^F,2 !///-!A,,2 F,2 | !///-!A,,2 ^F,2 !///-!A,,2 F,2 | %52
 [G,,G,]2- [G,,G,] z [G,,A,] z z2 | z4 ([C,G,]4 | [F,,F,]2) z2 z4 || %55
[K:F][K:treble] (!>!E7/2 E/ (!>![C=G]7/2) ^F/ | (!>!E7/2) E/ (!>![C=G]7/2) ^F/ | %57
 (!>!E7/2) ^F/ !>!E7/2 =F/) | E E2 E{/C} !trill(!TE4 |{/F,} F2 F2 E2 E2 |{/A,} (D^CDE) D2- D z | %61
[K:bass]{/C,} (G,A, B,2){/F,} (A,G, F,2) |{/C,} (G,A,B,C){/F,,} (A,G,F,) z |{/F,} (F2 F2 E2 E2) | %64
{/B,} (D^CDE) D2- D z |{/=C,} (=CEDE CB,G,A, | F,A,[C,G,]A, [F,,F,]2-) [F,,F,] z | %67
 !arpeggio![C,E,G,C]2 z2 !arpeggio![G,,=B,,D,G,]2 z2 | %68
 !arpeggio![C,E,G,C]2 z2 !arpeggio![F,,A,,C,F,]2 z2 | %69
 !arpeggio![A,,C,E,A,]2 z2 !arpeggio![G,,=B,,D,G,]2 z2 | %70
 !arpeggio![E,G,=B,E]2 z2{/F} ([A,E]D[CE]F | [E,E]2) z2{/F} ([A,E]D[CE]F) | %72
{/E,} E E2 E{/C} !trill(!TE4 |{/F,} (F2 F2 E2 E2) |{/B,} (D^CDE) D2- D z |{/=C,} (=CEDE CB,G,A, | %76
 F,A,[C,G,]A, [F,,F,]2-) [F,,F,] z |{/C,,} C, z (C,2 C,A, G,2) | F,, z (C,2 C,G, F,2) | %79
{/E,,} E, z (E,2 E,C =B,2) | A,, z E,2 (E,C =B,) z | ([A,,E,]=B, A,) z (E,C B,) z | %82
 ([A,,E,]=B, A,) z (3(!>!=C,DC (3A,{/C}_B,G,) | ([F,F]2 [A,A]2 [G,G]2 [F,F]2) | %84
{/B,,} (E[D,D][^C,^C][E,E]) [D,D]2- [D,D] z | [=C,=C][E,E][D,D][E,E] [C,C][B,,B,][G,,G,][A,,A,] | %86
 [F,,F,]2 z2 !arpeggio![C,F,A,]2 z2 | !arpeggio![G,B,C]2 (G,A, !arpeggio![C,G,B,]A,B,C | %88
 [F,A,]2) z2 !arpeggio![C,F,A,]2 z2 | !arpeggio![G,B,C]2 G,A, !arpeggio![C,G,B,]A,B,C | %90
 [F,A,]6 (F,2 | [D,F,A,]6) (F,2 | [C,F,A,]6) (F,2 | [C,F,]4) [B,,C,E,]4 | [F,,A,,C,F,]2 (FE D2 ED | %95
 C2) (F,E, D,2 E,D, | C,4 [A,,,A,,]4 | [G,,,G,,]4 [A,,,A,,]4) |] %98
V:4
 x6 | x6 | x6 | x6 | x6 | x3 F3 | E3 F3 | E x5 | x6 | x6 | x6 | x6 | x6 | x6 | x6 | x6 | x6 | x6 | %18
 x6 | x6 | x6 | x6 | x6 | x6 | x6 | x6 | x6 | x6 | x6 | x6 | x6 | x6 | x6 | x6 | x6 | x6 | x6 | %37
 x6 | x3 F3 | E3 (G>AB) | x6 | x6 | x6 | x6 | x6 | x6 | x6 ||[M:4/4] x8 | x8 | x8 | x8 | x8 | x8 | %53
 x8 | x8 ||[K:F] x8 | x8 | x8 | x8 | x8 | x8 | x8 | x8 | x8 | x8 | x8 | x8 | x8 | x8 | x8 | x8 | %71
 x8 | x8 | x8 | x8 | x8 | x8 | x8 | x8 | x8 | x8 | x8 | x8 | x8 | x8 | x8 | x8 | x8 | x8 | x8 | %90
 x8 | x8 | x8 | x8 | x8 | x8 | x8 | x8 |] %98
V:5
 x6 | x6 | x6 | x6 | x6 | =G,2 G, G,2 G, | G,2 G, G,2 G, | x6 | x6 | x6 | x6 | x6 | x6 | x6 | x6 | %15
 x6 | x6 | x6 | x6 | x6 | x6 | x6 | x6 | x6 | x6 | x6 | x6 | x6 | x6 | x6 | x6 | x6 | x6 | x6 | %34
 x6 | x6 | x6 | x6 | =G,2 G, G,2 G, | G,2 G, G,2 G, | x6 | x6 | x6 | x6 | x6 | x6 | x6 || %47
[M:4/4] x8 | x8 | x8 | x8 | x8 | x8 | x8 | x8 ||[K:F][K:treble] x8 | x8 | x8 | x8 | x8 | x8 | %61
[K:bass] x8 | x8 | x8 | x8 | x8 | x8 | x8 | x8 | x8 | x8 | x8 | x8 | x8 | x8 | x8 | x8 | x8 | x8 | %79
 x8 | x8 | x8 | x8 | x8 | x8 | x8 | x8 | x8 | x8 | x8 | x8 | x8 | x8 | (B,,2 A,,2 G,,4) | x8 | x8 | %96
 x8 | x8 |] %98

